X: 25108
T: Maire's
R: hornpipe
M: 4/4
K: Gmajor
G2 FG EGDE|G3A (3Bcd ef|~g3d (3efg dB|cABG AGEF|
G2 FG EGDE|~G3A (3Bcd ef|g2 gd (3efg dB|1 cAFA GcBA:|2 cAFA G2 GA||
B~d3 edBe|dBAB ~G3A|B~d3 edBd|(3efg fa ~g3A|
B~d3 edBd|g3a b2 af|g2 gf geBd|1 cABG AGEG:|2 cABG AGAA||
d~g3 b~g3|ageg dgbg|cafa gedB|cABG AGEF|
G2 FG EGDE|G3A (3Bcd ef|~g3d (3efg dB|1 cAFA G2 GB:|2 cAFA GcBA||

